!!!OTL: GOLDNE GOLDNE BRUECKE
!!!ARE: Europa, Mitteleuropa, Deutschland
!!!SCT: E1879
!!!YEM: Copyright 1995, estate of Helmut Schaffrath.
**kern
*ICvox
*Ivox
*M2/4
*k[f#c#]
*D:
=1
{8d
8e
8f#
8g
=2
4a
8a}
{8a
=3
8b
8b
8dd
8b
=4
4a
8f#}
{8a
=5
4g
8e
8a
=6
4f#
8d}
{8f#
=7
8e
8f#
8g
8a
=8
4g
8f#}
{8d
=9
8a
8a
8f#
8d
=10
8a
8a
8f#}
{8d
=11
8b
8b
8dd
8b
=12
4a
8f#}
{8a
=13
8b
8a
8g
8f#
=14
4e
8d
8r}
==
!!!AGN: Kinder - Lied, Tanz, Bruecken - Spiel
!!!ONB: ESAC (Essen Associative Code) Database: ERK3
!!!AMT: simple duple
!!!AIN: vox
!!!EED: Helmut Schaffrath
!!!EEV: 1.0
*-
